X:184
T:Kiss Me Kate
Z: id:dc-reel-168
M:C
L:1/8
K:G Major
G2Bd gdBG|D2GB ADEF|G2Bd gdBd|ecBc ADEF|!
G2Bd gdBG|D2GB ADEF|G2Bd gdBd|ecBc AGGg|]!
fgag fddg|fgag bgeg|fgag fddg|fdef g2ef|!
gbaf g2bg|fgag fddg|fdd2 Add2|fdef gedB|]!

